X: 12797
T: Fear, The
R: reel
M: 4/4
K: Bminor
a|:geee deee|geee dgBA|geee deae|gedB BA A2:|
Bfff ef d2|BcdB fe-e2|Bfff ef d2|Bcdc B3A|
Beee ed e2-|eede fe- ed|Beee ed e2|decd B3||

